assets/icons/familly.svg

<svg width="24" height="24" xmlns="http://www.w3.org/2000/svg"><path style="fill:gray;fill-opacity:1;stroke-width:1.5;stroke-linecap:square;stroke-linejoin:round" d="M13 16v1h1c1.108 0 2 .892 2 2v3h1v-2.5a.499.499 0 1 1 1 0V22h1v-3c0-1.108.892-2 2-2h1v-1h-9z"/><path style="fill:gray;fill-opacity:1;stroke-width:1.5;stroke-linecap:square;stroke-linejoin:round" d="M2 8v1h1.13A3.86 3.86 0 0 1 7 12.87V20h1v-4.5c0-.831.669-1.5 1.5-1.5s1.5.669 1.5 1.5V20h1v-7.13A3.86 3.86 0 0 1 15.87 9H17V8H2z"/><circle style="fill:gray;stroke-width:1.5;stroke-linecap:square;stroke-linejoin:round;fill-opacity:1" cx="9.5" cy="4.5" r="2.5"/><circle style="fill:gray;fill-opacity:1;stroke-width:1.5;stroke-linecap:square;stroke-linejoin:round" cx="17.5" cy="13.5" r="1.5"/></svg>

<?xml version="1.0" encoding="UTF-8" standalone="no"?>
<svg viewBox="0 0 24 24" version="1.1" id="svg4" sodipodi:docname="parental-controls.svg" inkscape:version="1.2 (1:1.2.1+202207142221+cd75a1ee6d)" width="24" height="24"
   xmlns:inkscape="http://www.inkscape.org/namespaces/inkscape"
   xmlns:sodipodi="http://sodipodi.sourceforge.net/DTD/sodipodi-0.dtd"
   xmlns="http://www.w3.org/2000/svg"
   xmlns:svg="http://www.w3.org/2000/svg"
   xmlns:rdf="http://www.w3.org/1999/02/22-rdf-syntax-ns#"
   xmlns:cc="http://creativecommons.org/ns#"
   xmlns:dc="http://purl.org/dc/elements/1.1/">
   <metadata id="metadata10">
      <rdf:RDF>
         <cc:Work rdf:about="">
            <dc:format>image/svg+xml</dc:format>
            <dc:type rdf:resource="http://purl.org/dc/dcmitype/StillImage" />
         </cc:Work>
      </rdf:RDF>
   </metadata>
   <defs id="defs8" />
   <sodipodi:namedview pagecolor="#ffffff" bordercolor="#666666" borderopacity="1" objecttolerance="10" gridtolerance="10" guidetolerance="10" inkscape:pageopacity="0" inkscape:pageshadow="2" inkscape:window-width="1920" inkscape:window-height="1016" id="namedview6" showgrid="true" inkscape:snap-bbox="true" inkscape:bbox-paths="true" inkscape:bbox-nodes="true" inkscape:snap-bbox-edge-midpoints="true" inkscape:snap-bbox-midpoints="true" inkscape:object-paths="true" inkscape:snap-intersection-paths="true" inkscape:snap-smooth-nodes="true" inkscape:snap-midpoints="true" inkscape:zoom="19.445436" inkscape:cx="6.068262" inkscape:cy="14.167849" inkscape:window-x="0" inkscape:window-y="0" inkscape:window-maximized="1" inkscape:current-layer="svg4" inkscape:pagecheckerboard="0" width="24px" inkscape:showpageshadow="2" inkscape:deskcolor="#d1d1d1">
      <inkscape:grid type="xygrid" id="grid835" />
   </sodipodi:namedview>
   <path id="rect1208" style="fill:#808080;fill-opacity:1;fill-rule:evenodd;stroke-width:1.5;stroke-linecap:square;stroke-linejoin:round" d="M 13 16 L 13 17 L 14 17 C 15.108 17 16 17.892 16 19 L 16 22 L 17 22 L 17 19.5 C 17 19.223 17.223 19 17.5 19 C 17.777 19 18 19.223 18 19.5 L 18 22 L 19 22 L 19 19 C 19 17.892 19.892 17 21 17 L 22 17 L 22 16 L 13 16 z " />
   <path id="rect1025" style="fill:#808080;fill-opacity:1;fill-rule:evenodd;stroke-width:1.5;stroke-linecap:square;stroke-linejoin:round" d="M 2 8 L 2 9 L 3.1308594 9 C 5.2741949 9 7 10.725805 7 12.869141 L 7 20 L 8 20 L 8 15.5 C 8 14.669 8.669 14 9.5 14 C 10.331 14 11 14.669 11 15.5 L 11 20 L 12 20 L 12 12.869141 C 12 10.725805 13.725805 9 15.869141 9 L 17 9 L 17 8 L 2 8 z " />
   <circle style="fill:#808080;fill-rule:evenodd;stroke-width:1.5;stroke-linecap:square;stroke-linejoin:round;fill-opacity:1" id="path891" cx="9.5" cy="4.5" r="2.5" />
   <circle style="fill:#808080;fill-opacity:1;fill-rule:evenodd;stroke-width:1.5;stroke-linecap:square;stroke-linejoin:round" id="path1184" cx="17.5" cy="13.5" r="1.5" />
</svg>
